X:101
T: IM WALD UND AUF DER HEIDE
N: B0589
O: Europa, Mitteleuropa, Deutschland
R: Staende -, Jaeger - Lied
M: 6/8
L: 1/8
K: C
G, | G,2G,G,2G, | G,3E,2
G, | C2CCB,C | E2DCB,
A, | G,2G,G,A,B, | C4z
G, | G,2G,G,A,B, | C4z
G, | G,2G,G,2G, | G,2EC2
B, | A,2A,A,2A, | A,2FD2
C | B,2B,B,CD | E3FE
D | C2CB,2B, | C3z2
G, | G,E,G,C2C | CG,CE2
E | D2DB,2B, | C4z
G, | G,E,G,C2C | CG,CE2
E | D2DB,2B, | C4z

